img/skills-icon/bootstrap.svg

<svg viewBox="0 0 800 800" xmlns="http://www.w3.org/2000/svg"><g fill="#563d7c"><path d="M99.2 0h601.3c16.18.95 32.29 5.03 46.49 13 28.56 15.64 48.77 45.57 52.14 78.01.25 2.75.56 5.5.87 8.25v601.26c-1.25 27.66-13.41 54.86-34.36 73.17-17.6 16.18-41.14 25.02-64.87 26.31H99.48c-14.95-.89-29.82-4.42-43.19-11.25-15.98-8.12-29.73-20.52-39.55-35.51C6.47 737.71 1.13 719.29 0 700.79V101.43c.57-9.18 1.38-18.44 4.27-27.23 6.78-24.43 23.39-45.77 44.93-59 15-9.3 32.46-14.12 50-15.2m126.05 157.76c0 161.49-.01 322.99 0 484.49 63.9.01 127.8 0 191.7 0 20.39-.2 40.81.55 61.17-.72 35.18-2.68 70.83-11.86 99.96-32.44 14.82-10.34 27.24-24.03 36.22-39.71 9.88-16.73 14.84-35.99 16.15-55.27 1.46-22.42-.86-45.4-9.14-66.42-7.32-18.6-19.35-35.58-35.49-47.53-12.97-9.91-28.15-16.52-43.71-21.18 9.28-4.67 18.37-9.83 26.53-16.31 14.72-11.31 26.77-26.54 32.82-44.22 6.92-19.7 7.42-41.06 5.15-61.63-2.19-19.46-8.96-38.68-21.32-54.04-12.01-15.46-29.27-26.04-47.48-32.68-22.65-8.15-46.84-10.96-70.76-12.03-23.67-.63-47.35-.18-71.03-.32-56.92.01-113.85 0-170.77.01z"/><path d="M331.76 240.51c33.08-.01 66.15-.02 99.23 0 17.29.46 35.51 1.67 50.78 10.64 12.74 7.33 21.19 21.13 22.44 35.73 1.66 17.08-.53 36.43-13.07 49.26-12.45 12.05-30.15 17.01-47.11 17.61-37.42.01-74.85 0-112.27 0-.01-37.75-.01-75.5 0-113.24zm0 186c39.42-.02 78.85-.01 118.28-.01 19.66.3 40.29 4.85 55.62 17.84 12.02 10.28 17.11 26.3 18.3 41.62 1.14 15.4.27 32.11-8.66 45.31-7.46 11.92-20.12 19.58-33.4 23.44-13.91 4.07-28.51 4.82-42.93 4.8-35.74-.02-71.48.01-107.22-.02 0-44.33 0-88.65.01-132.98z"/></g><path fill="#fff" d="M225.25 157.76c56.92-.01 113.85 0 170.77-.01 23.68.14 47.36-.31 71.03.32 23.92 1.07 48.11 3.88 70.76 12.03 18.21 6.64 35.47 17.22 47.48 32.68 12.36 15.36 19.13 34.58 21.32 54.04 2.27 20.57 1.77 41.93-5.15 61.63-6.05 17.68-18.1 32.91-32.82 44.22-8.16 6.48-17.25 11.64-26.53 16.31 15.56 4.66 30.74 11.27 43.71 21.18 16.14 11.95 28.17 28.93 35.49 47.53 8.28 21.02 10.6 44 9.14 66.42-1.31 19.28-6.27 38.54-16.15 55.27-8.98 15.68-21.4 29.37-36.22 39.71-29.13 20.58-64.78 29.76-99.96 32.44-20.36 1.27-40.78.52-61.17.72-63.9 0-127.8.01-191.7 0-.01-161.5 0-323 0-484.49m106.51 82.75c-.01 37.74-.01 75.49 0 113.24 37.42 0 74.85.01 112.27 0 16.96-.6 34.66-5.56 47.11-17.61 12.54-12.83 14.73-32.18 13.07-49.26-1.25-14.6-9.7-28.4-22.44-35.73-15.27-8.97-33.49-10.18-50.78-10.64-33.08-.02-66.15-.01-99.23 0m0 186c-.01 44.33-.01 88.65-.01 132.98 35.74.03 71.48 0 107.22.02 14.42.02 29.02-.73 42.93-4.8 13.28-3.86 25.94-11.52 33.4-23.44 8.93-13.2 9.8-29.91 8.66-45.31-1.19-15.32-6.28-31.34-18.3-41.62-15.33-12.99-35.96-17.54-55.62-17.84-39.43 0-78.86-.01-118.28.01z"/></svg>

<?xml version="1.0" encoding="UTF-8" ?>
<!DOCTYPE svg PUBLIC "-//W3C//DTD SVG 1.1//EN" "http://www.w3.org/Graphics/SVG/1.1/DTD/svg11.dtd">
<svg viewBox="0 0 800 800" version="1.1" xmlns="http://www.w3.org/2000/svg">
<g id="#563d7cff">
<path fill="#563d7c" opacity="1.00" d=" M 99.20 0.00 L 700.50 0.00 C 716.68 0.95 732.79 5.03 746.99 13.00 C 775.55 28.64 795.76 58.57 799.13 91.01 C 799.38 93.76 799.69 96.51 800.00 99.26 L 800.00 700.52 C 798.75 728.18 786.59 755.38 765.64 773.69 C 748.04 789.87 724.50 798.71 700.77 800.00 L 99.48 800.00 C 84.53 799.11 69.66 795.58 56.29 788.75 C 40.31 780.63 26.56 768.23 16.74 753.24 C 6.47 737.71 1.13 719.29 0.00 700.79 L 0.00 101.43 C 0.57 92.25 1.38 82.99 4.27 74.20 C 11.05 49.77 27.66 28.43 49.20 15.20 C 64.20 5.90 81.66 1.08 99.20 0.00 M 225.25 157.76 C 225.25 319.25 225.24 480.75 225.25 642.25 C 289.15 642.26 353.05 642.25 416.95 642.25 C 437.34 642.05 457.76 642.80 478.12 641.53 C 513.30 638.85 548.95 629.67 578.08 609.09 C 592.90 598.75 605.32 585.06 614.30 569.38 C 624.18 552.65 629.14 533.39 630.45 514.11 C 631.91 491.69 629.59 468.71 621.31 447.69 C 613.99 429.09 601.96 412.11 585.82 400.16 C 572.85 390.25 557.67 383.64 542.11 378.98 C 551.39 374.31 560.48 369.15 568.64 362.67 C 583.36 351.36 595.41 336.13 601.46 318.45 C 608.38 298.75 608.88 277.39 606.61 256.82 C 604.42 237.36 597.65 218.14 585.29 202.78 C 573.28 187.32 556.02 176.74 537.81 170.10 C 515.16 161.95 490.97 159.14 467.05 158.07 C 443.38 157.44 419.70 157.89 396.02 157.75 C 339.10 157.76 282.17 157.75 225.25 157.76 Z" />
<path fill="#563d7c" opacity="1.00" d=" M 331.76 240.51 C 364.84 240.50 397.91 240.49 430.99 240.51 C 448.28 240.97 466.50 242.18 481.77 251.15 C 494.51 258.48 502.96 272.28 504.21 286.88 C 505.87 303.96 503.68 323.31 491.14 336.14 C 478.69 348.19 460.99 353.15 444.03 353.75 C 406.61 353.76 369.18 353.75 331.76 353.75 C 331.75 316.00 331.75 278.25 331.76 240.51 Z" />
<path fill="#563d7c" opacity="1.00" d=" M 331.76 426.51 C 371.18 426.49 410.61 426.50 450.04 426.50 C 469.70 426.80 490.33 431.35 505.66 444.34 C 517.68 454.62 522.77 470.64 523.96 485.96 C 525.10 501.36 524.23 518.07 515.30 531.27 C 507.84 543.19 495.18 550.85 481.90 554.71 C 467.99 558.78 453.39 559.53 438.97 559.51 C 403.23 559.49 367.49 559.52 331.75 559.49 C 331.75 515.16 331.75 470.84 331.76 426.51 Z" />
</g>
<g id="#ffffffff">
<path fill="#ffffff" opacity="1.00" d=" M 225.25 157.76 C 282.17 157.75 339.10 157.76 396.02 157.75 C 419.70 157.89 443.38 157.44 467.05 158.07 C 490.97 159.14 515.16 161.95 537.81 170.10 C 556.02 176.74 573.28 187.32 585.29 202.78 C 597.65 218.14 604.42 237.36 606.61 256.82 C 608.88 277.39 608.38 298.75 601.46 318.45 C 595.41 336.13 583.36 351.36 568.64 362.67 C 560.48 369.15 551.39 374.31 542.11 378.98 C 557.67 383.64 572.85 390.25 585.82 400.16 C 601.96 412.11 613.99 429.09 621.31 447.69 C 629.59 468.71 631.91 491.69 630.45 514.11 C 629.14 533.39 624.18 552.65 614.30 569.38 C 605.32 585.06 592.90 598.75 578.08 609.09 C 548.95 629.67 513.30 638.85 478.12 641.53 C 457.76 642.80 437.34 642.05 416.95 642.25 C 353.05 642.25 289.15 642.26 225.25 642.25 C 225.24 480.75 225.25 319.25 225.25 157.76 M 331.76 240.51 C 331.75 278.25 331.75 316.00 331.76 353.75 C 369.18 353.75 406.61 353.76 444.03 353.75 C 460.99 353.15 478.69 348.19 491.14 336.14 C 503.68 323.31 505.87 303.96 504.21 286.88 C 502.96 272.28 494.51 258.48 481.77 251.15 C 466.50 242.18 448.28 240.97 430.99 240.51 C 397.91 240.49 364.84 240.50 331.76 240.51 M 331.76 426.51 C 331.75 470.84 331.75 515.16 331.75 559.49 C 367.49 559.52 403.23 559.49 438.97 559.51 C 453.39 559.53 467.99 558.78 481.90 554.71 C 495.18 550.85 507.84 543.19 515.30 531.27 C 524.23 518.07 525.10 501.36 523.96 485.96 C 522.77 470.64 517.68 454.62 505.66 444.34 C 490.33 431.35 469.70 426.80 450.04 426.50 C 410.61 426.50 371.18 426.49 331.76 426.51 Z" />
</g>
</svg>
